packages/kaspersky-hexa-ui-icons/src/iconsSVGs/64x42/FlagCy.svg

<svg xmlns="http://www.w3.org/2000/svg" width="64" height="42" fill="none" viewBox="0 0 64 42"><g clip-path="url(#a)"><rect width="64" height="42" fill="#fff" rx="5"/><path fill="#e7832c" fill-rule="evenodd" d="M44.9735 6.6135c.7859-.393 1.5836.5106 1.0962 1.2417l-.9506 1.4258a1.31 1.31 0 0 1-.3639.364l-3.9916 2.661a1.44 1.44 0 0 0-.2199.1803l-.3216.3216c-.5635.5635-.5635 1.4771 0 2.0406l.8452.8453c.5635.5635.5635 1.4771 0 2.0406l-1.1301 1.1302a1.443 1.443 0 0 1-1.6657.2703l-.665-.3326c-.7128-.3564-1.5795-.0675-1.9359.6453l-.5304 1.0607a1.443 1.443 0 0 1-.8343.7236l-3.5397 1.1799a1.44 1.44 0 0 1-.4563.074H28.55a1.443 1.443 0 0 0-1.2906.7977l-.3988.7976c-.3564.7128-1.2231 1.0017-1.9359.6453l-4.2718-2.1358a1.45 1.45 0 0 1-.375-.2703l-2.2977-2.2977a1.443 1.443 0 0 1-.4226-1.0203v-1.2679c0-.5635.4568-1.0203 1.0203-1.0203.2706 0 .5302-.1075.7215-.2989l2.1644-2.1644a1.443 1.443 0 0 1 1.0203-.4226h1.2482a1.443 1.443 0 0 0 1.3689-.9867l.7113-2.1337a1.443 1.443 0 0 1 1.6518-.9586l5.6475 1.1295c.2095.0419.4257.0367.633-.0151l5.3033-1.3258a1.44 1.44 0 0 0 .2953-.1093l2.7442-1.372z" clip-rule="evenodd"/><circle cx="32" cy="33" r="1" fill="#445128"/><path stroke="#445128" stroke-linecap="round" stroke-width="3" d="M36.316 31.144s4.329-1.443 5.772-4.329m-14.43 4.329s-4.329-1.443-5.772-4.329"/><rect width="63" height="41" x="1" y="1" stroke="#f5f5f5" rx="5"/></g><defs><clipPath id="a"><rect width="64" height="42" fill="#fff" rx="5"/></clipPath></defs></svg>

<svg width="64" height="42" viewBox="0 0 64 42" fill="none" xmlns="http://www.w3.org/2000/svg">
<g clip-path="url(#clip0_37941_2211)">
<rect width="64" height="42" rx="5" fill="white"/>
<path fill-rule="evenodd" clip-rule="evenodd" d="M44.9735 6.61348C45.7594 6.22052 46.5571 7.12406 46.0697 7.85516L45.1191 9.28104C45.023 9.42516 44.8993 9.54883 44.7552 9.64491L40.7636 12.306C40.6845 12.3587 40.6109 12.4191 40.5437 12.4863L40.2221 12.8079C39.6586 13.3714 39.6586 14.285 40.2221 14.8485L41.0673 15.6938C41.6308 16.2573 41.6308 17.1709 41.0673 17.7344L39.9372 18.8646C39.498 19.3037 38.8271 19.4126 38.2715 19.1349L37.6065 18.8023C36.8937 18.4459 36.027 18.7348 35.6706 19.4476L35.1402 20.5083C34.9691 20.8506 34.669 21.1109 34.3059 21.2319L30.7662 22.4118C30.6191 22.4608 30.465 22.4858 30.3099 22.4858H28.55C28.0035 22.4858 27.5038 22.7946 27.2594 23.2835L26.8606 24.0811C26.5042 24.7939 25.6375 25.0828 24.9247 24.7264L20.6529 22.5906C20.5142 22.5212 20.3876 22.4299 20.2779 22.3203L17.9802 20.0226C17.7096 19.752 17.5576 19.385 17.5576 19.0023V17.7344C17.5576 17.1709 18.0144 16.7141 18.5779 16.7141C18.8485 16.7141 19.1081 16.6066 19.2994 16.4152L21.4638 14.2508C21.7344 13.9802 22.1014 13.8282 22.4841 13.8282H23.7323C24.3534 13.8282 24.9048 13.4308 25.1012 12.8415L25.8125 10.7078C26.0426 10.0174 26.7508 9.60646 27.4643 9.74918L33.1118 10.8787C33.3213 10.9206 33.5375 10.9154 33.7448 10.8636L39.0481 9.53778C39.1502 9.51224 39.2493 9.47561 39.3434 9.42852L42.0876 8.05642L44.9735 6.61348Z" fill="#E7832C"/>
<circle cx="31.9869" cy="32.5865" r="1.44294" fill="#445128"/>
<path opacity="0.75" d="M36.3159 31.1435C36.3159 31.1435 40.6447 29.7006 42.0877 26.8147" stroke="#445128" stroke-width="2.88589" stroke-linecap="round"/>
<path opacity="0.75" d="M27.6582 31.1435C27.6582 31.1435 23.3294 29.7006 21.8864 26.8147" stroke="#445128" stroke-width="2.88589" stroke-linecap="round"/>
<rect x="0.5" y="0.5" width="63" height="41" rx="4.5" stroke="#F5F5F5"/>
</g>
<defs>
<clipPath id="clip0_37941_2211">
<rect width="64" height="42" rx="5" fill="white"/>
</clipPath>
</defs>
</svg>
